**kern
*clefF4
*k[]
*M4/4
=1
*^
2r	[1GG#X 1E 1E
2B	.
=2	=2
1E 1E 1c	2GG#]
.	2AA
=3||	=3||
1E [1G#X	2r
.	2EE 2BB
=4	=4
2G#]	1AAA 1C 1E
2A	.
=5||	=5||
2r	1E 1E 1G#X
[2B	.
=6	=6
2B]	1AA 1E 1A
2c	.
=7||	=7||
2F	1DD 1AA [1D
2G	.
=8	=8
2D]	1AAA 1C [1A
2E	.
=9	=9
2A]	1FF 1C [1F
2B	.
=10	=10
2F]	1CC 1E 1c
2G	.
*v	*v
==
*-
!!!system-decoration: [(s1
